teeny/solid/cplusplus.svg

<svg width="15" height="15" viewBox="0 0 15 15" fill="none" xmlns="http://www.w3.org/2000/svg">
<path fill-rule="evenodd" clip-rule="evenodd" d="M7.5 0.421143L14 4.21281V10.7872L7.5 14.5788L1 10.7872V4.21281L7.5 0.421143ZM6.5 4C4.567 4 3 5.567 3 7.5C3 9.433 4.567 11 6.5 11H7.08579C8.1239 11 9.1195 10.5876 9.85355 9.85355L9.14645 9.14645C8.59993 9.69297 7.85868 10 7.08579 10H6.5C5.11929 10 4 8.88071 4 7.5C4 6.11929 5.11929 5 6.5 5H7.08579C7.85868 5 8.59993 5.30703 9.14645 5.85355L9.85355 5.14645C9.1195 4.41239 8.1239 4 7.08579 4H6.5ZM7 7V6H8V7H10V6H11V7H12V8H11V9H10V8H8V9H7V8H6V7H7Z" fill="black"/>
</svg>

<svg viewBox="0 0 15 15" xmlns="http://www.w3.org/2000/svg"><path fill-rule="evenodd" d="M7.5.42L14 4.21v6.57l-6.5 3.79 -6.5-3.8V4.19L7.5.39Zm-1 3.57C4.56 3.99 3 5.55 3 7.49c0 1.93 1.56 3.5 3.5 3.5h.58c1.03 0 2.03-.42 2.76-1.15l-.71-.71c-.55.54-1.29.85-2.07.85h-.59c-1.39 0-2.5-1.12-2.5-2.5 0-1.39 1.11-2.5 2.5-2.5h.58c.77 0 1.51.3 2.06.85l.7-.71c-.74-.74-1.73-1.15-2.77-1.15h-.59Zm.5 3v-1h1v1h2v-1h1v1h1v1h-1v1h-1v-1H8v1H7v-1H6v-1h1Z"/></svg>
